public/assets/naald.svg

<svg width="327" height="344" viewBox="0 0 327 344" fill="none" xmlns="http://www.w3.org/2000/svg">
<g clip-path="url(#clip0)">
<path d="M33.9688 55.2739L70.336 271.637L272.966 340.391H324.372L323.624 323.166L93.4399 255.798L59.5542 54.332L33.9688 55.2739Z" fill="#F87980"/>
<path d="M27.5488 55.5304L66.2264 54.0748L65.114 0.390625L23.4414 3.38735L27.5488 55.5304Z" fill="#FACABC"/>
<path d="M26.0961 37.5508L0.253906 45.2566V47.2259L26.4383 42.3455L26.0961 37.5508Z" fill="#BE988D"/>
<path d="M285.374 336.368L82.7437 267.615L46.9754 54.7617L33.9688 55.2754L70.336 271.639L272.939 342.802L324.439 341.95L324.155 335.932L285.374 336.368Z" fill="#A75155"/>
<path d="M38.0739 48.5955L34.3944 2.61719L23.4414 3.38777L27.5488 55.5308L66.2264 54.0753L66.1409 47.5681L38.0739 48.5955Z" fill="#BE988D"/>
</g>
<defs>
<clipPath id="clip0">
<rect width="326" height="343" fill="white" transform="translate(0.253906 0.390625)"/>
</clipPath>
</defs>
</svg>

<svg width="327" height="344" fill="none" xmlns="http://www.w3.org/2000/svg"><g clip-path="url(#clip0)"><path d="M33.969 55.274l36.367 216.363 202.63 68.754h51.406l-.748-17.225L93.44 255.798 59.554 54.332l-25.585.942z" fill="#F87980"/><path d="M27.549 55.53l38.677-1.455L65.114.39 23.441 3.387 27.55 55.53z" fill="#FACABC"/><path d="M26.096 37.55L.254 45.258v1.969l26.184-4.88-.342-4.795z" fill="#BE988D"/><path d="M285.374 336.368l-202.63-68.753L46.975 54.762l-13.006.513L70.336 271.64l202.603 71.163 51.5-.852-.284-6.018-38.781.436z" fill="#A75155"/><path d="M38.074 48.596l-3.68-45.979-10.953.77 4.108 52.144 38.677-1.456-.085-6.507-28.067 1.028z" fill="#BE988D"/></g><defs><clipPath id="clip0"><path fill="#fff" transform="translate(.254 .39)" d="M0 0h326v343H0z"/></clipPath></defs></svg>
